teeny/outline/microphone.svg

<svg width="15" height="15" viewBox="0 0 15 15" fill="none" xmlns="http://www.w3.org/2000/svg">
<path d="M2.5 4V6.5C2.5 9.26142 4.73858 11.5 7.5 11.5M12.5 4V6.5C12.5 9.26142 10.2614 11.5 7.5 11.5M7.5 11.5V15M5 14.5H10M9.5 2.5V6.5C9.5 7.60457 8.60457 8.5 7.5 8.5C6.39543 8.5 5.5 7.60457 5.5 6.5V2.5C5.5 1.39543 6.39543 0.5 7.5 0.5C8.60457 0.5 9.5 1.39543 9.5 2.5Z" stroke="black"/>
</svg>

<svg viewBox="0 0 15 15" xmlns="http://www.w3.org/2000/svg"><path fill="none" stroke="#000" d="M2.5 4v2.5c0 2.76 2.23 5 5 5m5-7.5v2.5c0 2.76-2.24 5-5 5m0 0V15M5 14.5h5m-.5-12v4c0 1.1-.9 2-2 2 -1.11 0-2-.9-2-2v-4c0-1.11.89-2 2-2 1.1 0 2 .89 2 2Z"/></svg>
